X: 1
T: the Dawning of the Day
P: piffero primo a0464
O: strube
%R: march
F: http://ancients.sudburymuster.org/mus/ssp/pdf/struberevF.pdf
Z: 2019 John Chambers <jc:trillian.mit.edu>
M: 2/4
L: 1/16
K: G
D2 |\
G3A BAGF | E4 z2d2 | e3f gfed | B4 z2A2 | G3F G3A | Bdef gfed |
B3G A3F | G4 z2 :: (3(Bcd) | e3d e2f2 | gfga gfed | e3d e3f | agfe edB2 |
e3d e2f2 | gfga gfed | e3d g3B | Hd4 z2 (3(Bcd) | e3d e2f2 | gfga gfed |
B"^>"g2 B2"^>"g2 | ABAG GFED | G3F G2A2 | Bdef gfed | B3G A3F | G4 z2 :|
